!!!COM: des Prez, Josquin
!!!CDT: ~1450-1521/08/27
!!!OTL: Baisiez moy
!!!AGN: Chanson
!!!SCT: NJE 28.4
!!!SCA: New Josquin Edition 28.4
!!!voices: 4
**kern	**text	**kern	**text	**kern	**text	**kern	**text
*staff4	*staff4	*staff3	*staff3	*staff2	*staff2	*staff1	*staff1
*Ivox	*	*Ivox	*	*Ivox	*	*Ivox	*
*I"Bassus	*	*I"Tenor	*	*I"Altus	*	*I"Superius	*
*I'B	*	*I'T	*	*I'A	*	*I'S	*
*clefF4	*	*clefGv2	*	*clefGv2	*	*clefG2	*
*k[]	*	*k[b-]	*	*k[]	*	*k[b-]	*
*M2/1	*	*M2/1	*	*M2/1	*	*M2/1	*
*met(C|)	*	*met(C|)	*	*met(C|)	*	*met(C|)	*
=1-	=1-	=1-	=1-	=1-	=1-	=1-	=1-
!	!	!	!	!	!	!LO:TX:X=-70:Z=28:t=4-ex-2 canon (B-->T & A-->S, both at the upper 4th, 1 breve)	!
0D	Bai-	0r	.	1r	.	0r	.
.	.	.	.	[1d	Bai-	.	.
=2	=2	=2	=2	=2	=2	=2	=2
0E	-siez	0G	Bai-	2d\]	.	1r	.
.	.	.	.	4c#i\	.	.	.
.	.	.	.	4B\	.	.	.
.	.	.	.	1c#i	-siez	[1g	Bai-
=3	=3	=3	=3	=3	=3	=3	=3
0D	moy,	0A	-siez	1.d	moy,	2g/]	.
.	.	.	.	.	.	4f#i/	.
.	.	.	.	.	.	4e/	.
.	.	.	.	.	.	1f#	-siez
.	.	.	.	4c\	.	.	.
.	.	.	.	4B\	.	.	.
=4	=4	=4	=4	=4	=4	=4	=4
1r	.	0G	moy,	2.B\	.	1.g	moy,
.	.	.	.	4G/	.	.	.
1G	bai-	.	.	2G/	.	.	.
.	.	.	.	[2g\	bai-	4f/	.
.	.	.	.	.	.	4e/	.
=5	=5	=5	=5	=5	=5	=5	=5
0A	-siez	1r	.	2g\]	.	2.e/	.
.	.	.	.	4f#i\	.	.	.
.	.	.	.	4e\	.	4c/	.
.	.	1c	bai-	1f#i	-siez	2c/	.
.	.	.	.	.	.	[2cc\	bai-
=6	=6	=6	=6	=6	=6	=6	=6
0G	moy,	0d	-siez	[0g	moy,	2cc\]	.
.	.	.	.	.	.	4bni\	.
.	.	.	.	.	.	4a/	.
.	.	.	.	.	.	1bni	-siez
=7	=7	=7	=7	=7	=7	=7	=7
0r	.	0c	moy,	0g]	.	[0cc	moy,
=8	=8	=8	=8	=8	=8	=8	=8
2c\	bai-	0r	.	0r	.	0cc]	.
2c\	-siez	.	.	.	.	.	.
2c\	moy	.	.	.	.	.	.
2c\	ma	.	.	.	.	.	.
=9	=9	=9	=9	=9	=9	=9	=9
1A	doulce	2f\	bai-	0r	.	0r	.
.	.	2f\	-siez	.	.	.	.
1A	a-	2f\	moy	.	.	.	.
.	.	2f\	ma	.	.	.	.
=10	=10	=10	=10	=10	=10	=10	=10
1.B	-mi-	1d	doulce	0r	.	0r	.
.	.	1d	a-	.	.	.	.
4A\	.	.	.	.	.	.	.
4G\	.	.	.	.	.	.	.
=11	=11	=11	=11	=11	=11	=11	=11
0G	-e,	1.e	-mi-	2g\	Par	0r	.
.	.	.	.	2g\	a-	.	.
.	.	.	.	2g\	-mour	.	.
.	.	4d\	.	2g\	je	.	.
.	.	4c\	.	.	.	.	.
=12	=12	=12	=12	=12	=12	=12	=12
2A\	Par	0c	-e,	1e	vous	2cc\	Par
2A\	a-	.	.	.	.	2cc\	a-
2A\	-mour	.	.	1e	en	2cc\	-mour
2A\	je	.	.	.	.	2cc\	je
=13	=13	=13	=13	=13	=13	=13	=13
1F	vous	2d\	Par	1.f	pri-	1a	vous
.	.	2d\	a-	.	.	.	.
1F	en	2d\	-mour	.	.	1a	en
.	.	2d\	je	4e\	.	.	.
.	.	.	.	4d\	.	.	.
=14	=14	=14	=14	=14	=14	=14	=14
1.G	pri-	1B-	vous	1d	-e.	1.b-	pri-
.	.	1B-	en	[1g	Non	.	.
4F\	.	.	.	.	.	4a/	.
4E\	.	.	.	.	.	4g/	.
=15	=15	=15	=15	=15	=15	=15	=15
2.E\	.	1.c	pri-	2g\]	.	1g	-e.
.	.	.	.	2f\	.	.	.
4C/	.	.	.	.	.	.	.
1C	-e.	.	.	[1e	.	[1cc	Non
.	.	4B-\	.	.	.	.	.
.	.	4A/	.	.	.	.	.
=16	=16	=16	=16	=16	=16	=16	=16
1r	.	2.A/	.	2e\]	.	2cc\]	.
.	.	.	.	2d\	.	2b-\	.
.	.	4F/	.	.	.	.	.
1D	Non	1F	-e.	[1d	.	[1a	.
=17	=17	=17	=17	=17	=17	=17	=17
0E	fe-	1r	.	1d]	.	2a/]	.
.	.	.	.	.	.	2g/	.
.	.	1G	Non	1c#i	fe-	[1g	.
=18	=18	=18	=18	=18	=18	=18	=18
0D	-ray.	0A	fe-	1.d	-ray.	1g]	.
.	.	.	.	.	.	1f#i	fe-
.	.	.	.	4c\	.	.	.
.	.	.	.	4B\	.	.	.
=19	=19	=19	=19	=19	=19	=19	=19
1r	.	0G	-ray.	2.B\	.	1.g	-ray.
.	.	.	.	4G/	.	.	.
1G	Et	.	.	2G/	.	.	.
.	.	.	.	[2g\	Et	4f/	.
.	.	.	.	.	.	4e/	.
=20	=20	=20	=20	=20	=20	=20	=20
0A	pour	1r	.	2g\]	.	2.e/	.
.	.	.	.	4f#i\	.	.	.
.	.	.	.	4e\	.	4c/	.
.	.	1c	Et	1f#i	pour	2c/	.
.	.	.	.	.	.	[2cc\	Et
=21	=21	=21	=21	=21	=21	=21	=21
0G	quoy?	0d	pour	[0g	quoy?	2cc\]	.
.	.	.	.	.	.	4bni\	.
.	.	.	.	.	.	4a/	.
.	.	.	.	.	.	1bni	pour
=22	=22	=22	=22	=22	=22	=22	=22
0r	.	0c	quoy?	0g]	.	[0cc	quoy?
=23	=23	=23	=23	=23	=23	=23	=23
2c\	Se	0r	.	0r	.	0cc]	.
2c\	je	.	.	.	.	.	.
2c\	fai-	.	.	.	.	.	.
2c\	-sois	.	.	.	.	.	.
=24	=24	=24	=24	=24	=24	=24	=24
1A	la	2f\	Se	0r	.	0r	.
.	.	2f\	je	.	.	.	.
1A	fo-	2f\	fai-	.	.	.	.
.	.	2f\	-sois	.	.	.	.
=25	=25	=25	=25	=25	=25	=25	=25
1.B	-li-	1d	la	0r	.	0r	.
.	.	1d	fo-	.	.	.	.
4A\	.	.	.	.	.	.	.
4G\	.	.	.	.	.	.	.
=26	=26	=26	=26	=26	=26	=26	=26
0G	-e	1.e	-li-	2g\	Ma	0r	.
.	.	.	.	2g\	mere	.	.
.	.	.	.	2g\	en	.	.
.	.	4d\	.	2g\	se-	.	.
.	.	4c\	.	.	.	.	.
=27	=27	=27	=27	=27	=27	=27	=27
2A\	Ma	0c	-e	1e	-roit	2cc\	Ma
2A\	mere	.	.	.	.	2cc\	mere
2A\	en	.	.	1e	ma-	2cc\	en
2A\	se-	.	.	.	.	2cc\	se-
=28	=28	=28	=28	=28	=28	=28	=28
1F	-roit	2d\	Ma	1.f	-ri-	1a	-roit
.	.	2d\	mere	.	.	.	.
1F	ma-	2d\	en	.	.	1a	ma-
.	.	2d\	se-	4e\	.	.	.
.	.	.	.	4d\	.	.	.
=29	=29	=29	=29	=29	=29	=29	=29
1.G	-ri-	1B-	-roit	1d	-e.	1.b-	-ri-
.	.	1B-	ma-	1d	Ve-	.	.
4F\	.	.	.	.	.	4a/	.
4E\	.	.	.	.	.	4g/	.
=30	=30	=30	=30	=30	=30	=30	=30
1E	-e.	1.c	-ri-	1c	-la	1g	-e.
1C	Ve-	.	.	[1e	.	1g	Ve-
.	.	4B-\	.	.	.	.	.
.	.	4A/	.	.	.	.	.
=31	=31	=31	=31	=31	=31	=31	=31
0D	-la	1A	-e.	2e\]	.	1f	-la
.	.	.	.	2d\	.	.	.
.	.	1F	Ve-	[1d	.	[1a	.
=32	=32	=32	=32	=32	=32	=32	=32
0E	de	0G	-la	1d]	.	2a/]	.
.	.	.	.	.	.	2g/	.
.	.	.	.	1c#i	de	[1g	.
=33	=33	=33	=33	=33	=33	=33	=33
0D	quoy,	0A	de	0d	quoy,	1g]	.
.	.	.	.	.	.	1f#i	de
=34	=34	=34	=34	=34	=34	=34	=34
1r	.	0G	quoy,	1r	.	0g	quoy,
1C	ve-	.	.	1e	ve-	.	.
=35	=35	=35	=35	=35	=35	=35	=35
0D	-la	1r	.	2d\	-la	1r	.
.	.	.	.	2.f\	.	.	.
.	.	1F	ve-	.	.	1a	ve-
.	.	.	.	4e\	.	.	.
.	.	.	.	[2d\	.	.	.
=36	=36	=36	=36	=36	=36	=36	=36
0E	de	0G	-la	2d\]	.	2g/	-la
.	.	.	.	4c#i\	.	2.b-\	.
.	.	.	.	4B\	.	.	.
.	.	.	.	1c#i	de	.	.
.	.	.	.	.	.	4a/	.
.	.	.	.	.	.	[2g/	.
=37	=37	=37	=37	=37	=37	=37	=37
0D	.	0A	de	[0dl	quoy.	2g/]	.
.	.	.	.	.	.	4f#i/	.
.	.	.	.	.	.	4e/	.
.	.	.	.	.	.	1f#i	de
=38	=38	=38	=38	=38	=38	=38	=38
0Gl	quoy.	0Gl	quoy.	0d]	.	0gl	quoy.
==	==	==	==	==	==	==	==
*-	*-	*-	*-	*-	*-	*-	*-
!!!RDF**kern: l=long note in original notation
!!!RDF**kern: i=editorial accidental
!!!ENC: Jesse Rodin
!!!END: 2017/06/05/
!!!EED: Jesse Rodin
!!!EEV: 2018/01/18/
!!attribution-level@Jos: 2 (provisionally attributable [parentheses checkmark])
!!!ONB: Translated from MusicXML and edited on 2018/01/18/ by Craig Sapp
!!muse2ps: C^@{COM}\n@{SCT}^i2I150v90,90,90,120c105z18l2700t130
